icon-themes/sifr_svg/cmd/lc_superscript.svg

<svg viewBox="0 0 24 24" xmlns="http://www.w3.org/2000/svg"><path d="m15 0v11h2 2.5c1.932997 0 3.5-1.567003 3.5-3.5s-1.567003-3.5-3.5-3.5h-2.5v-4zm-11 5v3h8c1.104569 0 2 .8954305 2 2v-4.578125c-.61342-.2685973-1.287489-.421875-2-.421875zm13 1h2.5c.828427 0 1.5.671573 1.5 1.5s-.671573 1.5-1.5 1.5h-2.5zm-11.5 5c-2.4852814 0-4.5 2.014719-4.5 4.5s2.0147186 4.5 4.5 4.5h11.5v-8h-3v-1zm0 3h8.5v3h-8.5c-.8284271 0-1.5-.671573-1.5-1.5s.6715729-1.5 1.5-1.5z" fill="#555753"/></svg>

<svg viewBox="0 0 24 24" xmlns="http://www.w3.org/2000/svg">
  <path
     style="fill:#555753"
     d="M 15 0 L 15 11 L 17 11 L 19.5 11 C 21.432997 11 23 9.432997 23 7.5 C 23 5.567003 21.432997 4 19.5 4 L 17 4 L 17 0 L 15 0 z M 4 5 L 4 8 L 12 8 C 13.104569 8 14 8.8954305 14 10 L 14 5.421875 C 13.38658 5.1532777 12.712511 5 12 5 L 4 5 z M 17 6 L 19.5 6 C 20.328427 6 21 6.671573 21 7.5 C 21 8.328427 20.328427 9 19.5 9 L 17 9 L 17 6 z M 5.5 11 C 3.0147186 11 1 13.014719 1 15.5 C 1 17.985281 3.0147186 20 5.5 20 L 17 20 L 17 12 L 14 12 L 14 11 L 5.5 11 z M 5.5 14 L 14 14 L 14 17 L 5.5 17 C 4.6715729 17 4 16.328427 4 15.5 C 4 14.671573 4.6715729 14 5.5 14 z "
     />
</svg>
